src/assets/svg/icons/fa/nuevos/classic/duotone/hose classic duotone.svg

<svg xmlns="http://www.w3.org/2000/svg" viewBox="0 0 448 512"><defs><style>.fa-secondary{opacity:.4}</style></defs><path class="fa-primary" d="M448 40v48c0 8.832-7.168 16-16 16c-8.064 0-14.75-5.984-15.84-13.73L336 101.7V104C336 117.2 325.2 128 312 128S288 117.2 288 104v-80C288 10.75 298.8 0 312 0s24 10.75 24 24v2.271l80.16 11.46C417.2 29.98 423.9 24 432 24C440.8 24 448 31.17 448 40z"/><path class="fa-secondary" d="M144 320H416c17.66 0 32-14.34 32-32s-14.34-32-32-32H144C99.81 256 64 220.2 64 176S99.81 96 144 96H256V32H144C64.48 32 0 96.48 0 176S64.48 320 144 320zM416 448H32c-17.66 0-32 14.34-32 32s14.34 32 32 32h384c17.66 0 32-14.34 32-32S433.7 448 416 448zM416 352H32c-17.66 0-32 14.34-32 32s14.34 32 32 32h384c17.66 0 32-14.34 32-32S433.7 352 416 352z"/></svg>

<svg xmlns="http://www.w3.org/2000/svg" viewBox="0 0 448 512"><!--! Font Awesome Pro 6.4.0 by @fontawesome - https://fontawesome.com License - https://fontawesome.com/license (Commercial License) Copyright 2023 Fonticons, Inc. --><defs><style>.fa-secondary{opacity:.4}</style></defs><path class="fa-primary" d="M312 128c-13.3 0-24-10.7-24-24V24c0-13.3 10.7-24 24-24s24 10.7 24 24v2.3l80.2 11.5C417.3 30 423.9 24 432 24c8.8 0 16 7.2 16 16V88c0 8.8-7.2 16-16 16c-8.1 0-14.7-6-15.8-13.7L336 101.7V104c0 13.3-10.7 24-24 24z"/><path class="fa-secondary" d="M64 176c0-44.2 35.8-80 80-80H288V32H144C64.5 32 0 96.5 0 176s64.5 144 144 144H416c17.7 0 32-14.3 32-32s-14.3-32-32-32H144c-44.2 0-80-35.8-80-80zM32 352c-17.7 0-32 14.3-32 32s14.3 32 32 32H416c17.7 0 32-14.3 32-32s-14.3-32-32-32H32zm0 96c-17.7 0-32 14.3-32 32s14.3 32 32 32H416c17.7 0 32-14.3 32-32s-14.3-32-32-32H32z"/></svg>
